X:1
T:Our bonnyboots could toot it - Morley
T:#
%%score [ 1 2 { 3 | 4 } 5 ]
L:1/8
Q:1/4=108
M:4/4
K:F
V:1 treble nm="Soprano" snm="S"
V:2 treble nm="Alto" snm="A"
V:3 treble-8 nm="Tenor I" snm="T"
V:4 treble-8 
V:5 bass nm="Bass" snm="B"
V:1
"^Our bonny-boots could toot it" z8 | z8 | z4 c4 | f3 f d3"^Thomas Morley\n(1557-1603)" d | %4
w: ||Our|Bon- ny boots could|
[M:4/4] e4 c2 c2 | d3 d =B3 B | c4 A2 c2 | f3 f d3 d | e4 f4 | z2 d4 c2 | c8 | c8 | z8 | z4 c4 | %14
w: toot it, our|Bon- ny boots could|toot it, our|Bon- ny boots could|toot it,|yea and|foot|it.||Say,|
 f3 f d3 d | e4 c2 c2 | d3 d =B3 B | c4 A2 c2 | f3 f d3 d | e4 f4 | z2 d4 c2 | c8 | c2 F2 FGAB | %23
w: lus- ty lads who|now shall, say,|lus- ty lads who|now shall, say,|lus- ty lads who|now shall|bon- ny-|boot|it? Who but the jol- ly|
 c4 c2 f2 | fedc B2 BB | _e3 d c2 c2 | d4 d2 c2- | c2 c2 =B4 | c8 | z4 z2 f2- | f2 d4 B2- | %31
w: shep- herd, who|but the jol- ly shep- herd, who|but the jol- ly|shep- herd, bon\-|* ny Dor-|us?|He|* now must|
 B2 c3 (B A2) | G2 F2 G3 (A | Bcde) f2 c2 | d4 d4 | c8 | c8 | z4 z2 f2- | f2 d4 B2- | %39
w: * lead the *|mor- ris dance, the|* * * * mor- ris|dance be-|fore|us,|he|* now must|
 B2 c3 (B A2) | G2 F2 G3 (A | Bcde) f2 c2 |[Q:1/4=105] d4[Q:1/4=101] d4 |[Q:1/4=95] c8 | %44
w: * lead the *|mor- ris dance, the|* * * * mor- ris|dance be-|fore|
[Q:1/4=92] c8 |] %45
w: us.|
V:2
 z8 | F4 B3 B | G3 G A4 | F2 F2 B3 B |[M:4/4] G3 G A4 | F4 z4 | z4 z2 A2 | d3 d =B3 B | c4 A4 | %9
w: |Our Bon- ny|boots could toot|it, our Bon- ny|boots could toot|it,|our|Bon- ny boots could|toot it,|
 B6 A2 | (G2 F4 E2) | F4 z4 | z2 F2 B3 B | G3 G A4 | F2 F2 B3 B | G3 G A4 | F4 z4 | z4 z2 A2 | %18
w: yea and|foot * *|it.|Say, lus- ty|lads who now|shall, say, lus- ty|lads who now|shall,|say,|
 d3 d =B3 B | c4 A4 | B6 A2 | (G2 F4 E2) | F2 c2 cBAG | A2 F4 F2 | F3 F G2 G2 | G4 A4 | B6 A2- | %27
w: lus- ty lads who|now shall|bon- ny-|boot * *|it? Who but the jol- ly|shep- herd, who|but the jol- ly|shep- herd,|bon- ny|
 A2 (^F2 G4) | G8 | c4 A4 | F4 B3 B | G6 F2 | E2 D4 C2 | B,2 B2 B2 A2 | G2 (FE DE)FD | E2 F2 G4 | %36
w: * Dor\- *|us?|He now|must lead the|mor- ris|dance be- fore|us, He now must|lead the * * * mor- ris|dance be- fore|
 A8 | c4 A4 | F4 B3 B | G6 F2 | E2 D4 C2 | B,2 B2 B2 A2 | G2 (FE DE)FD | E2 F2 G4 | A8 |] %45
w: us,|He now|must lead the|mor- ris|dance be- fore|us, He now must|lead the * * * mor- ris|dance be- fore|us.|
V:3
 z4 F4 | B3 B G3 G | c4 A4 | z8 |[M:4/4][K:treble-8] z2 c2 f2 f2 | d3 d g4 | e4 z4 | z4 d2 g2- | %8
w: Our|Bon- ny boots could|toot it,||our Bon- ny|boots could toot|it,|our Bon\-|
 gg e2 c2 f2- | f2 B4 c2 | e2 (f2 g4) | a4 z2 F2 | B3 B G3 G | c4 A4 | z8 | z2 c2 f3 f | d3 d g4 | %17
w: * ny boots could toot|* it, yea|and foot *|it. Say,|lus- ty lads who|now shall,||say, lus- ty|lads who now|
 e4 z4 | z4 d2 g2- | gg e2 c2 f2- | f2 B4 c2 | e2 (f2 g4) | a8 | z2 a2 agfe | d2 d2 _e4- | %25
w: shall,|say, lus\-|* ty lads who now|* shall bon-|ny- boot *|it?|Who but the jol- ly|shep- herd, bon\-|
 e2 _e2 f4 | f8 | z8 | z2 g4 e2- | e2 c4 A2- | A2 d2 d4 | d2 e4 c2- | c2 A2 G2 G2- | G2 G2 F4 | %34
w: * ny Dor-|us?||He now|* must lead|* the mor-|ris dance, he|* now must lead|* the mor-|
 D6 B2- | B2 A2 G4 | F8 | z2 c4 A2- | A2 d2 d4 | d2 e3 e c2- | c2 A2 G2 G2- | G2 G2 F4 | D6 B2- | %43
w: ris dance|* be- fore|us,|he now|* must lead|the mor- ris dance|* be- fore us,|* the mor-|ris dance|
 B2 A2 G4 | F8 |] %45
w: * be- fore|us.|
V:4
 c4 f2 f2 | d3 d g4 | e4 z2 c2 | d3 d B3 B |[M:4/4][K:treble-8] c4 A4 | z8 | z2 c2 f3 f | d3 d d4 | %8
w: Our Bon- ny-|boots could toot|it, our|Bon- ny- boots could|toot it,||our Bon- ny-|boots could toot|
 c2 c2 c3 c | d3 d f2 F2 | G2 c2 c4 | c2 c2 f3 f | d3 d g4 | e4 z2 c2 | d3 d B3 B | c4 A4 | z8 | %17
w: it, our Bon- ny-|boots could toot it,|yea and foot|it. Say, lus- ty|lads who now|shall, say,|lus- ty lads who|now shall,||
 z2 c2 f3 f | d3 d d4 | c2 c2 c3 c | d3 d f2 F2 | G2 c2 c4 | c8 | z4 z2 d2 | dcBA G2 GG | %25
w: say, lus- ty|lads who now|shall, say, lus- ty|lads who now shall|bon- ny- boot|it?|Who|but the jol- ly shep- herd, who|
 c3 B A2 F2 | F4 F2 A2- | A (B c2) d4 | e4 c4 | A4 F4 | c2 B2 G3 G | G6 (A2- | E2 F2) (D2 E2) | %33
w: but the jol- ly|shep- herd, bon\-|* ny * Dor-|us? He|now must|lead the mor- ris|dance be\-|* * fore *|
 D2 d2 d2 c2 | (Bcde) f2 d2 | g2 f4 e2 | f4 c4 | A4 F4 | c2 B2 G3 G | G6 A2 | (E2 F2) (D2 E2) | %41
w: us, must lead the|* * * * mor- ris|dance be- fore|us, he|now must|lead the mor- ris|dance be\-|* * fore *|
 D2 d2 d2 (c2 | Bcde) f2 d2 | g2 f4 e2 | f8 |] %45
w: us, must lead the|* * * * mor- ris|dance be- fore|us.|
V:5
 z8 | z8 | C,4 F,3 F, | D,3 D, G,4 |[M:4/4] C,4 z2 F,2 | B,3 B, G,3 G, | C4 F,4 | z2 D,2 G,3 G, | %8
w: ||Our Bon- ny-|boots could toot|it, our|Bon- ny boots could|toot it,|our Bon- ny-|
 E,2 C,2 F,4 | B,,2 B,,4 F,2 | C,8 | F,8 | z8 | C,4 F,3 F, | D,3 D, G,4 | C,4 z2 F,2 | %16
w: boots could toot|it, yea and|foot|it.||Say, lus- ty|lads who now|shall, say,|
 B,3 B, G,3 G, | C4 F,4 | z2 D,2 G,3 G, | E,2 C,2 F,4 | B,,2 B,,4 F,2 | C,8 | F,8 | %23
w: lus- ty lads who|now shall,|say, lus- ty|lads who now|shall bon- ny-|boot|it?|
 z2 F,2 F,_E,D,C, | B,,2 B,,B,, _E,3 D, | C,2 C,2 F,4 | B,,6 F,2- | F, (G, A,2) G,4 | C,4 z2 C2- | %29
w: Who but the jol- ly|shep- herd, who but the|jol- ly shep-|herd, bon\-|* ny * Dor-|us? He|
 C2 A,4 F,2- | F,2 B,4 G,2- | G,2 E,4 F,2 | C,2 D,2 =B,,2 C,2 | (G,,A,,B,,C, D,E, F,2) | B,,8 | %35
w: * now must|* lead the|* mor- ris|dance, the mor- ris|dance * * * * * *|be-|
 C,8 | F,4 z2 C2- | C2 A,4 F,2- | F,2 B,4 G,2- | G,2 E,4 F,2 | C,2 D,2 =B,,2 C,2 | %41
w: fore|us, he|* now must|* lead the|* mor- ris|dance, the mor- ris|
 (G,,A,,B,,C, D,E, F,2) | B,,8 | C,8 | F,8 |] %45
w: dance * * * * * *|be-|fore|us.|

